X: 78
T:Timour The Tartar
% Nottingham Music Database
S:Kevin Briggs, via EF
M:4/4
L:1/4
K:A
P:A
e|:"A"A(3c/2B/2A/2 e/2A/2(3c/2B/2A/2|"A"e/2A/2a/2A/2 "D"g/2A/2f/2A/2|\
"A"A(3c/2B/2A/2 e/2A/2(3c/2B/2A/2|"E7"B/2E/2c/2E/2 d/2E/2B/2E/2|
"A"A(3c/2B/2A/2 e/2A/2(3c/2B/2A/2|"A"e/2A/2a/2A/2 "D"g/2A/2f/2A/2|\
"A"e/2f/2e/2c/2 e/2a/2e/2c/2|"E7"B/2A/2B/2c/2 "A"A2::
P:B
"E7"E(3G/2F/2E/2 B/2E/2(3G/2F/2E/2|"E7"B/2E/2c/2E/2 d/2E/2B/2E/2|\
"A"A(3c/2B/2A/2 e/2A/2(3c/2B/2A/2|"A"e/2A/2a/2A/2 "D"g/2A/2f/2A/2|
"A"e/2f/2e/2c/2 "D"a/2g/2a/2f/2|"A"e/2f/2e/2c/2 "D"a/2g/2a/2f/2|\
"A"e/2c/2a/2g/2 "D"f/2e/2d/2c/2|"Bm"B/2A/2G/2F/2 "E7"E2:|


